X: 65
T: No_58_Song_Used_in_Treatment_of_Sick_(g).krn
N: Derived from No_58_Song_Used_in_Treatment_of_Sick_(g).krn
%%abc-version 2.0
%%abcx-abcm2ps-target-version 5.9.1 (29 Sep 2008)
%%abc-creator hum2abc beta
%%abcx-conversion-date 2019/03/15 08:36:49
%%humdrum-veritas 3534440787
%%humdrum-veritas-data 926435569
%%linebreak <none>
%%barnumbers 0
L: 1/8
M: 2/4
K: G clef=bass
[K:clef=bass][M:2/4]A,2A,2 | 
B,A, G,A, | 
A,4 | 
G,A, B,A, | 
G,4 | 
A,/G,3/G,2 | 
A,G,G,2- ||  
[M:3/4]G,4G,3/D,/ | 
G,2G,2G,3/D,/ ||  
[M:2/4]D,4 | 
D,3D, | 
D,4 |]  



